favicon.svg

<svg width="48" height="48" viewBox="0 0 48 48" fill="none" xmlns="http://www.w3.org/2000/svg">
<rect width="48" height="48" rx="10" fill="#1C1D20"/>
<path d="M36.7194 23.0526L36.8437 20.4303L34.5525 21.8568L33.842 20.6781L36.2754 19.4822L33.842 18.2864L34.5525 17.0906L36.8437 18.517L36.7194 15.8947H38.1226L37.9982 18.517L40.2895 17.0906L40.9999 18.2864L38.5666 19.4822L40.9999 20.6781L40.2895 21.8568L37.9982 20.4303L38.1226 23.0526H36.7194Z" fill="#FAFAFA"/>
<path d="M31.5506 18.8026V20.3082H25.7896V18.8026H31.5506ZM27.3599 28.4211V17.6842C27.3599 17.0877 27.4999 16.5916 27.7799 16.1959C28.066 15.7944 28.4372 15.4961 28.8937 15.3011C29.3563 15.1004 29.8524 15 30.3819 15C30.7897 15 31.1367 15.0315 31.4227 15.0946C31.7088 15.1577 31.9188 15.2122 32.0527 15.2581L31.578 16.7723C31.4867 16.7436 31.368 16.712 31.2219 16.6776C31.0819 16.6432 30.9054 16.626 30.6923 16.626C30.2115 16.626 29.8646 16.7407 29.6515 16.9701C29.4385 17.1938 29.332 17.5207 29.332 17.9509V28.4211H27.3599Z" fill="#FAFAFA"/>
<path d="M26.1822 18.8026V20.3082H20.4211V18.8026H26.1822ZM21.9915 28.4211V17.6842C21.9915 17.0877 22.1315 16.5916 22.4115 16.1959C22.6975 15.7944 23.0688 15.4961 23.5253 15.3011C23.9879 15.1004 24.484 15 25.0135 15C25.4213 15 25.7683 15.0315 26.0543 15.0946C26.3404 15.1577 26.5504 15.2122 26.6843 15.2581L26.2095 16.7723C26.1182 16.7436 25.9996 16.712 25.8535 16.6776C25.7135 16.6432 25.537 16.626 25.3239 16.626C24.8431 16.626 24.4962 16.7407 24.2831 16.9701C24.0701 17.1938 23.9636 17.5207 23.9636 17.9509V28.4211H21.9915Z" fill="#FAFAFA"/>
<path d="M16.186 28.4211C15.2194 28.4211 14.3824 28.2194 13.6751 27.816C12.9678 27.4127 12.4226 26.8446 12.0395 26.1118C11.6622 25.3733 11.4736 24.5126 11.4736 23.5298C11.4736 22.5527 11.6593 21.6921 12.0306 20.9479C12.4079 20.2037 12.9354 19.6242 13.6132 19.2095C14.2969 18.7891 15.0986 18.5789 16.018 18.5789C16.578 18.5789 17.1203 18.667 17.6448 18.8431C18.1694 19.0192 18.641 19.2976 19.0594 19.6782C19.4779 20.0588 19.808 20.553 20.0497 21.1609C20.2972 21.7688 20.421 22.5016 20.421 23.3594V24.0241H12.5611V22.6351H19.4308L18.5378 23.0952C18.5378 22.5101 18.4435 21.9931 18.2549 21.5444C18.0663 21.0956 17.7834 20.7462 17.4061 20.4962C17.0348 20.2406 16.5721 20.1128 16.018 20.1128C15.464 20.1128 14.9895 20.2406 14.5946 20.4962C14.2056 20.7519 13.9079 21.0899 13.7016 21.5103C13.4953 21.9307 13.3922 22.3908 13.3922 22.8907V23.8366C13.3922 24.4899 13.5101 25.0438 13.7458 25.4982C13.9816 25.9527 14.3087 26.2992 14.7272 26.5378C15.1516 26.7764 15.6438 26.8957 16.2037 26.8957C16.5692 26.8957 16.8992 26.8446 17.1939 26.7424C17.4945 26.6401 17.7539 26.4867 17.972 26.2822C18.1901 26.0777 18.3551 25.8249 18.4671 25.5238L20.2884 25.8561C20.141 26.3674 19.8817 26.8162 19.5104 27.2025C19.139 27.5888 18.6704 27.8899 18.1046 28.1058C17.5446 28.316 16.9051 28.4211 16.186 28.4211Z" fill="#FAFAFA"/>
<path d="M8.52903 18.725H10.3437V29.0183C10.3493 29.6636 10.2373 30.2081 10.0077 30.6518C9.77802 31.0954 9.44197 31.4296 8.99951 31.6543C8.55704 31.8848 8.01376 32 7.36966 32H7V30.3838H7.29404C7.73091 30.3838 8.04456 30.2657 8.23499 30.0295C8.42542 29.7933 8.52343 29.4533 8.52903 29.0097V18.725ZM9.42797 17.2384C9.10872 17.2384 8.83708 17.129 8.61305 16.91C8.38901 16.6911 8.277 16.4289 8.277 16.1235C8.277 15.8124 8.38901 15.5474 8.61305 15.3284C8.83708 15.1095 9.10872 15 9.42797 15C9.74162 15 10.0105 15.1095 10.2345 15.3284C10.4641 15.5474 10.5789 15.8124 10.5789 16.1235C10.5789 16.4289 10.4641 16.6911 10.2345 16.91C10.0105 17.129 9.74162 17.2384 9.42797 17.2384Z" fill="#FAFAFA"/>
</svg>

<svg width="48" height="48" fill="none" xmlns="http://www.w3.org/2000/svg"><rect width="48" height="48" rx="10" fill="#1C1D20"/><path d="m36.72 23.053.124-2.623-2.291 1.427-.711-1.179 2.433-1.196-2.433-1.196.71-1.195 2.292 1.426-.125-2.622h1.404l-.125 2.622 2.291-1.426.71 1.195-2.432 1.196L41 20.678l-.71 1.179-2.292-1.427.125 2.623h-1.404Zm-5.17-4.25v1.505h-5.76v-1.505h5.76Zm-4.19 9.618V17.684c0-.596.14-1.092.42-1.488.286-.402.657-.7 1.114-.895.462-.2.958-.301 1.488-.301.408 0 .755.031 1.04.095.287.063.497.117.63.163l-.474 1.514a5.215 5.215 0 0 0-.356-.094 2.27 2.27 0 0 0-.53-.052c-.48 0-.827.115-1.04.344-.213.224-.32.55-.32.98v10.471H27.36Z" fill="#FAFAFA"/><path d="M26.182 18.803v1.505h-5.76v-1.505h5.76Zm-4.19 9.618V17.684c0-.596.14-1.092.42-1.488.286-.402.657-.7 1.113-.895.463-.2.959-.301 1.489-.301.407 0 .754.031 1.04.095.286.063.496.117.63.163l-.475 1.514a5.21 5.21 0 0 0-.355-.094 2.27 2.27 0 0 0-.53-.052c-.48 0-.828.115-1.04.344-.214.224-.32.55-.32.98v10.471H21.99Zm-5.806 0c-.967 0-1.804-.202-2.51-.605a4.112 4.112 0 0 1-1.636-1.704c-.378-.739-.566-1.6-.566-2.582 0-.977.185-1.838.557-2.582a4.231 4.231 0 0 1 1.582-1.739c.684-.42 1.486-.63 2.405-.63.56 0 1.102.088 1.627.264.524.176.996.455 1.414.835.419.38.749.875.99 1.483.248.608.372 1.34.372 2.198v.665h-7.86v-1.389h6.87l-.893.46c0-.585-.095-1.102-.283-1.55a2.282 2.282 0 0 0-.849-1.049c-.371-.255-.834-.383-1.388-.383-.554 0-1.029.128-1.423.383a2.52 2.52 0 0 0-.893 1.014c-.207.42-.31.88-.31 1.38v.947c0 .653.118 1.207.354 1.661.236.455.563.801.981 1.04.425.238.917.358 1.477.358.365 0 .695-.051.99-.154.3-.102.56-.255.778-.46.218-.204.383-.457.495-.758l1.821.332c-.147.511-.406.96-.778 1.346a3.79 3.79 0 0 1-1.405.904c-.56.21-1.2.315-1.919.315Zm-7.657-9.696h1.815v10.293c.005.646-.107 1.19-.336 1.634-.23.443-.566.778-1.008 1.002-.443.23-.986.346-1.63.346H7v-1.616h.294c.437 0 .75-.118.941-.355.19-.236.288-.576.294-1.02V18.726Zm.899-1.487c-.32 0-.59-.109-.815-.328a1.06 1.06 0 0 1-.336-.787c0-.31.112-.576.336-.795.224-.218.496-.328.815-.328.314 0 .582.11.806.328.23.22.345.484.345.796 0 .305-.115.567-.345.786a1.113 1.113 0 0 1-.806.328Z" fill="#FAFAFA"/></svg>
